src/lib/packages/icons/src/assets/line/repeat.svg

<svg width="24" height="24" viewBox="0 0 24 24" fill="none" xmlns="http://www.w3.org/2000/svg">
<path d="M3.75 12.5C3.75 13.254 3.92504 13.9809 4.26904 14.6609C4.45704 15.0309 4.30796 15.482 3.93896 15.669C3.83096 15.724 3.71395 15.75 3.60095 15.75C3.32695 15.75 3.06303 15.6001 2.93103 15.3391C2.48603 14.4601 2.25 13.478 2.25 12.5C2.25 8.82002 4.82 6.25002 8.5 6.25002H15.189L14.469 5.53005C14.176 5.23705 14.176 4.76202 14.469 4.46902C14.762 4.17602 15.237 4.17602 15.53 4.46902L17.53 6.46902C17.599 6.53802 17.654 6.62091 17.692 6.71291C17.768 6.89591 17.768 7.10291 17.692 7.28591C17.654 7.37791 17.599 7.46105 17.53 7.53005L15.53 9.53005C15.384 9.67605 15.192 9.75002 15 9.75002C14.808 9.75002 14.616 9.67705 14.47 9.53005C14.177 9.23705 14.177 8.76202 14.47 8.46902L15.1899 7.74905H8.50098C5.21898 7.75005 3.75 10.136 3.75 12.5ZM21.069 9.66091C20.882 9.29191 20.431 9.14208 20.061 9.33108C19.692 9.51808 19.543 9.96913 19.731 10.3391C20.075 11.0191 20.25 11.746 20.25 12.5C20.25 14.864 18.781 17.25 15.5 17.25H8.81104L9.53101 16.5301C9.82401 16.2371 9.82401 15.762 9.53101 15.469C9.23801 15.176 8.76297 15.176 8.46997 15.469L6.46997 17.469C6.17697 17.762 6.17697 18.2371 6.46997 18.5301L8.46997 20.5301C8.61597 20.6761 8.808 20.75 9 20.75C9.192 20.75 9.38403 20.6771 9.53003 20.5301C9.82303 20.2371 9.82303 19.762 9.53003 19.469L8.81006 18.749H15.499C19.179 18.749 21.749 16.179 21.749 12.499C21.75 11.522 21.515 10.5399 21.069 9.66091Z" fill="currentColor"/>
</svg>

<svg xmlns="http://www.w3.org/2000/svg" width="24" height="24" fill="none"><path fill="currentColor" d="M3.75 12.5c0 .754.175 1.48.519 2.16a.75.75 0 1 1-1.338.68 6.32 6.32 0 0 1-.681-2.84c0-3.68 2.57-6.25 6.25-6.25h6.689l-.72-.72a.75.75 0 0 1 1.061-1.06l2 2a.748.748 0 0 1 .162.817.75.75 0 0 1-.162.244l-2 2a.748.748 0 0 1-1.06 0 .75.75 0 0 1 0-1.061l.72-.72H8.5c-3.281 0-4.75 2.386-4.75 4.75Zm17.319-2.84a.75.75 0 1 0-1.338.678c.344.681.519 1.408.519 2.162 0 2.364-1.469 4.75-4.75 4.75H8.811l.72-.72a.75.75 0 0 0-1.061-1.06l-2 2a.75.75 0 0 0 0 1.061l2 2a.748.748 0 0 0 1.06 0 .75.75 0 0 0 0-1.061l-.72-.72h6.69c3.68 0 6.25-2.57 6.25-6.25a6.29 6.29 0 0 0-.68-2.838Z"/></svg>
